img/podcast.svg

<svg width="85" height="23" viewBox="0 0 85 23" fill="none" xmlns="http://www.w3.org/2000/svg">
<rect width="85" height="23" rx="4" fill="white"/>
<g clip-path="url(#clip0_18270_1126)">
<path fill-rule="evenodd" clip-rule="evenodd" d="M12.1333 7.76706C12.1333 5.63156 13.8645 3.90039 16 3.90039C18.1355 3.90039 19.8667 5.63156 19.8667 7.76706V10.9671C19.8667 13.1026 18.1355 14.8337 16 14.8337C13.8645 14.8337 12.1333 13.1026 12.1333 10.9671V7.76706ZM16 5.23372C14.6009 5.23372 13.4667 6.36794 13.4667 7.76706V10.9671C13.4667 12.3662 14.6009 13.5004 16 13.5004C17.3991 13.5004 18.5333 12.3662 18.5333 10.9671V7.76706C18.5333 6.36794 17.3991 5.23372 16 5.23372Z" fill="#424551"/>
<path fill-rule="evenodd" clip-rule="evenodd" d="M10.6667 9.23372C11.0349 9.23372 11.3333 9.5322 11.3333 9.90039V10.9671C11.3333 13.5444 13.4227 15.6337 16 15.6337C18.5773 15.6337 20.6667 13.5444 20.6667 10.9671V9.90039C20.6667 9.5322 20.9651 9.23372 21.3333 9.23372C21.7015 9.23372 22 9.5322 22 9.90039V10.9671C22 14.2808 19.3137 16.9671 16 16.9671C12.6863 16.9671 10 14.2808 10 10.9671V9.90039C10 9.5322 10.2985 9.23372 10.6667 9.23372Z" fill="#424551"/>
<path fill-rule="evenodd" clip-rule="evenodd" d="M16 16.1671C16.3682 16.1671 16.6667 16.4655 16.6667 16.8337V17.7671H18.1333C18.5015 17.7671 18.8 18.0655 18.8 18.4337C18.8 18.8019 18.5015 19.1004 18.1333 19.1004H13.8667C13.4985 19.1004 13.2 18.8019 13.2 18.4337C13.2 18.0655 13.4985 17.7671 13.8667 17.7671H15.3333V16.8337C15.3333 16.4655 15.6318 16.1671 16 16.1671Z" fill="#424551"/>
</g>
<path d="M32.242 12.17C32.6293 12.17 32.97 12.1187 33.264 12.016C33.5627 11.9133 33.8123 11.771 34.013 11.589C34.2183 11.4023 34.3723 11.1807 34.475 10.924C34.5777 10.6673 34.629 10.385 34.629 10.077C34.629 9.43767 34.4307 8.93833 34.034 8.579C33.642 8.21967 33.0447 8.04 32.242 8.04H30.632V12.17H32.242ZM32.242 6.969C32.8767 6.969 33.4273 7.04367 33.894 7.193C34.3653 7.33767 34.755 7.54533 35.063 7.816C35.371 8.08667 35.5997 8.41333 35.749 8.796C35.903 9.17867 35.98 9.60567 35.98 10.077C35.98 10.5437 35.8983 10.9707 35.735 11.358C35.5717 11.7453 35.3313 12.079 35.014 12.359C34.7013 12.639 34.3117 12.8583 33.845 13.017C33.383 13.171 32.8487 13.248 32.242 13.248H30.632V17H29.281V6.969H32.242ZM40.0151 9.797C40.5331 9.797 40.9997 9.88333 41.4151 10.056C41.8304 10.2287 42.1851 10.4737 42.4791 10.791C42.7731 11.1083 42.9971 11.4933 43.1511 11.946C43.3097 12.394 43.3891 12.8957 43.3891 13.451C43.3891 14.011 43.3097 14.515 43.1511 14.963C42.9971 15.411 42.7731 15.7937 42.4791 16.111C42.1851 16.4283 41.8304 16.6733 41.4151 16.846C40.9997 17.014 40.5331 17.098 40.0151 17.098C39.4924 17.098 39.0211 17.014 38.6011 16.846C38.1857 16.6733 37.8311 16.4283 37.5371 16.111C37.2431 15.7937 37.0167 15.411 36.8581 14.963C36.7041 14.515 36.6271 14.011 36.6271 13.451C36.6271 12.8957 36.7041 12.394 36.8581 11.946C37.0167 11.4933 37.2431 11.1083 37.5371 10.791C37.8311 10.4737 38.1857 10.2287 38.6011 10.056C39.0211 9.88333 39.4924 9.797 40.0151 9.797ZM40.0151 16.125C40.7151 16.125 41.2377 15.8917 41.5831 15.425C41.9284 14.9537 42.1011 14.298 42.1011 13.458C42.1011 12.6133 41.9284 11.9553 41.5831 11.484C41.2377 11.0127 40.7151 10.777 40.0151 10.777C39.6604 10.777 39.3501 10.8377 39.0841 10.959C38.8227 11.0803 38.6034 11.2553 38.4261 11.484C38.2534 11.7127 38.1227 11.995 38.0341 12.331C37.9501 12.6623 37.9081 13.038 37.9081 13.458C37.9081 14.298 38.0807 14.9537 38.4261 15.425C38.7761 15.8917 39.3057 16.125 40.0151 16.125ZM49.5894 11.596C49.3561 11.2833 49.1041 11.0663 48.8334 10.945C48.5628 10.819 48.2594 10.756 47.9234 10.756C47.2654 10.756 46.7591 10.9917 46.4044 11.463C46.0498 11.9343 45.8724 12.6063 45.8724 13.479C45.8724 13.941 45.9121 14.3377 45.9914 14.669C46.0708 14.9957 46.1874 15.2663 46.3414 15.481C46.4954 15.691 46.6844 15.845 46.9084 15.943C47.1324 16.041 47.3868 16.09 47.6714 16.09C48.0821 16.09 48.4391 15.9967 48.7424 15.81C49.0504 15.6233 49.3328 15.3597 49.5894 15.019V11.596ZM50.8354 6.689V17H50.0934C49.9161 17 49.8041 16.9137 49.7574 16.741L49.6454 15.88C49.3421 16.244 48.9968 16.538 48.6094 16.762C48.2221 16.986 47.7741 17.098 47.2654 17.098C46.8594 17.098 46.4908 17.021 46.1594 16.867C45.8281 16.7083 45.5458 16.4773 45.3124 16.174C45.0791 15.8707 44.8994 15.4927 44.7734 15.04C44.6474 14.5873 44.5844 14.067 44.5844 13.479C44.5844 12.9563 44.6544 12.471 44.7944 12.023C44.9344 11.5703 45.1351 11.1783 45.3964 10.847C45.6578 10.5157 45.9774 10.2567 46.3554 10.07C46.7381 9.87867 47.1674 9.783 47.6434 9.783C48.0774 9.783 48.4484 9.85767 48.7564 10.007C49.0691 10.1517 49.3468 10.3547 49.5894 10.616V6.689H50.8354ZM57.7384 11.169C57.7011 11.2203 57.6637 11.26 57.6264 11.288C57.5891 11.316 57.5377 11.33 57.4724 11.33C57.4024 11.33 57.3254 11.302 57.2414 11.246C57.1574 11.1853 57.0524 11.12 56.9264 11.05C56.8051 10.98 56.6534 10.917 56.4714 10.861C56.2941 10.8003 56.0747 10.77 55.8134 10.77C55.4634 10.77 55.1554 10.833 54.8894 10.959C54.6234 11.0803 54.3994 11.2577 54.2174 11.491C54.0401 11.7243 53.9047 12.0067 53.8114 12.338C53.7227 12.6693 53.6784 13.0403 53.6784 13.451C53.6784 13.8803 53.7274 14.263 53.8254 14.599C53.9234 14.9303 54.0611 15.2103 54.2384 15.439C54.4204 15.663 54.6374 15.8357 54.8894 15.957C55.1461 16.0737 55.4331 16.132 55.7504 16.132C56.0537 16.132 56.3034 16.097 56.4994 16.027C56.6954 15.9523 56.8564 15.8707 56.9824 15.782C57.1131 15.6933 57.2204 15.614 57.3044 15.544C57.3931 15.4693 57.4794 15.432 57.5634 15.432C57.6661 15.432 57.7454 15.4717 57.8014 15.551L58.1514 16.006C57.9974 16.1973 57.8224 16.3607 57.6264 16.496C57.4304 16.6313 57.2181 16.7457 56.9894 16.839C56.7654 16.9277 56.5297 16.993 56.2824 17.035C56.0351 17.077 55.7831 17.098 55.5264 17.098C55.0831 17.098 54.6701 17.0163 54.2874 16.853C53.9094 16.6897 53.5804 16.454 53.3004 16.146C53.0204 15.8333 52.8011 15.4507 52.6424 14.998C52.4837 14.5453 52.4044 14.0297 52.4044 13.451C52.4044 12.9237 52.4767 12.436 52.6214 11.988C52.7707 11.54 52.9854 11.155 53.2654 10.833C53.5501 10.5063 53.8977 10.252 54.3084 10.07C54.7237 9.888 55.1997 9.797 55.7364 9.797C56.2357 9.797 56.6744 9.87867 57.0524 10.042C57.4351 10.2007 57.7734 10.427 58.0674 10.721L57.7384 11.169ZM63.332 13.808C62.758 13.8267 62.268 13.8733 61.862 13.948C61.4606 14.018 61.1316 14.1113 60.875 14.228C60.623 14.3447 60.4386 14.4823 60.322 14.641C60.21 14.7997 60.154 14.977 60.154 15.173C60.154 15.3597 60.1843 15.5207 60.245 15.656C60.3056 15.7913 60.3873 15.9033 60.49 15.992C60.5973 16.076 60.721 16.139 60.861 16.181C61.0056 16.2183 61.1596 16.237 61.323 16.237C61.5423 16.237 61.743 16.216 61.925 16.174C62.107 16.1273 62.2773 16.062 62.436 15.978C62.5993 15.894 62.7533 15.7937 62.898 15.677C63.0473 15.5603 63.192 15.4273 63.332 15.278V13.808ZM59.307 10.91C59.699 10.532 60.1213 10.2497 60.574 10.063C61.0266 9.87633 61.5283 9.783 62.079 9.783C62.4756 9.783 62.828 9.84833 63.136 9.979C63.444 10.1097 63.703 10.2917 63.913 10.525C64.123 10.7583 64.2816 11.0407 64.389 11.372C64.4963 11.7033 64.55 12.0673 64.55 12.464V17H63.997C63.8756 17 63.7823 16.9813 63.717 16.944C63.6516 16.902 63.6003 16.8227 63.563 16.706L63.423 16.034C63.2363 16.2067 63.0543 16.3607 62.877 16.496C62.6996 16.6267 62.513 16.7387 62.317 16.832C62.121 16.9207 61.911 16.9883 61.687 17.035C61.4676 17.0863 61.2226 17.112 60.952 17.112C60.6766 17.112 60.4176 17.0747 60.175 17C59.9323 16.9207 59.72 16.804 59.538 16.65C59.3606 16.496 59.2183 16.3023 59.111 16.069C59.0083 15.831 58.957 15.551 58.957 15.229C58.957 14.949 59.034 14.6807 59.188 14.424C59.342 14.1627 59.5916 13.9317 59.937 13.731C60.2823 13.5303 60.7326 13.367 61.288 13.241C61.8433 13.1103 62.5246 13.0357 63.332 13.017V12.464C63.332 11.9133 63.213 11.498 62.975 11.218C62.737 10.9333 62.3893 10.791 61.932 10.791C61.624 10.791 61.365 10.8307 61.155 10.91C60.9496 10.9847 60.77 11.071 60.616 11.169C60.4666 11.2623 60.336 11.3487 60.224 11.428C60.1166 11.5027 60.0093 11.54 59.902 11.54C59.818 11.54 59.7456 11.519 59.685 11.477C59.6243 11.4303 59.573 11.3743 59.531 11.309L59.307 10.91ZM70.5779 11.078C70.5219 11.1807 70.4356 11.232 70.3189 11.232C70.2489 11.232 70.1696 11.2063 70.0809 11.155C69.9923 11.1037 69.8826 11.0477 69.7519 10.987C69.6259 10.9217 69.4743 10.8633 69.2969 10.812C69.1196 10.756 68.9096 10.728 68.6669 10.728C68.4569 10.728 68.2679 10.756 68.0999 10.812C67.9319 10.8633 67.7873 10.9357 67.6659 11.029C67.5493 11.1223 67.4583 11.232 67.3929 11.358C67.3323 11.4793 67.3019 11.6123 67.3019 11.757C67.3019 11.939 67.3533 12.0907 67.4559 12.212C67.5633 12.3333 67.7033 12.4383 67.8759 12.527C68.0486 12.6157 68.2446 12.695 68.4639 12.765C68.6833 12.8303 68.9073 12.9027 69.1359 12.982C69.3693 13.0567 69.5956 13.1407 69.8149 13.234C70.0343 13.3273 70.2303 13.444 70.4029 13.584C70.5756 13.724 70.7133 13.8967 70.8159 14.102C70.9233 14.3027 70.9769 14.5453 70.9769 14.83C70.9769 15.1567 70.9186 15.46 70.8019 15.74C70.6853 16.0153 70.5126 16.2557 70.2839 16.461C70.0553 16.6617 69.7753 16.8203 69.4439 16.937C69.1126 17.0537 68.7299 17.112 68.2959 17.112C67.8013 17.112 67.3533 17.0327 66.9519 16.874C66.5506 16.7107 66.2099 16.503 65.9299 16.251L66.2239 15.775C66.2613 15.7143 66.3056 15.6677 66.3569 15.635C66.4083 15.6023 66.4736 15.586 66.5529 15.586C66.6369 15.586 66.7256 15.6187 66.8189 15.684C66.9123 15.7493 67.0243 15.8217 67.1549 15.901C67.2903 15.9803 67.4536 16.0527 67.6449 16.118C67.8363 16.1833 68.0743 16.216 68.3589 16.216C68.6016 16.216 68.8139 16.1857 68.9959 16.125C69.1779 16.0597 69.3296 15.9733 69.4509 15.866C69.5723 15.7587 69.6609 15.635 69.7169 15.495C69.7776 15.355 69.8079 15.2057 69.8079 15.047C69.8079 14.851 69.7543 14.69 69.6469 14.564C69.5443 14.4333 69.4066 14.3237 69.2339 14.235C69.0613 14.1417 68.8629 14.0623 68.6389 13.997C68.4196 13.927 68.1933 13.8547 67.9599 13.78C67.7313 13.7053 67.5049 13.6213 67.2809 13.528C67.0616 13.43 66.8656 13.3087 66.6929 13.164C66.5203 13.0193 66.3803 12.842 66.2729 12.632C66.1703 12.4173 66.1189 12.1583 66.1189 11.855C66.1189 11.5843 66.1749 11.3253 66.2869 11.078C66.3989 10.826 66.5623 10.6067 66.7769 10.42C66.9916 10.2287 67.2553 10.077 67.5679 9.965C67.8806 9.853 68.2376 9.797 68.6389 9.797C69.1056 9.797 69.5233 9.87167 69.8919 10.021C70.2653 10.1657 70.5873 10.3663 70.8579 10.623L70.5779 11.078ZM74.6816 17.112C74.1216 17.112 73.6899 16.9557 73.3866 16.643C73.0879 16.3303 72.9386 15.88 72.9386 15.292V10.952H72.0846C72.0099 10.952 71.9469 10.931 71.8956 10.889C71.8442 10.8423 71.8186 10.7723 71.8186 10.679V10.182L72.9806 10.035L73.2676 7.844C73.2816 7.774 73.3119 7.718 73.3586 7.676C73.4099 7.62933 73.4752 7.606 73.5546 7.606H74.1846V10.049H76.2356V10.952H74.1846V15.208C74.1846 15.5067 74.2569 15.7283 74.4016 15.873C74.5462 16.0177 74.7329 16.09 74.9616 16.09C75.0922 16.09 75.2042 16.0737 75.2976 16.041C75.3956 16.0037 75.4796 15.964 75.5496 15.922C75.6196 15.88 75.6779 15.8427 75.7246 15.81C75.7759 15.7727 75.8202 15.754 75.8576 15.754C75.9229 15.754 75.9812 15.7937 76.0326 15.873L76.3966 16.468C76.1819 16.6687 75.9229 16.8273 75.6196 16.944C75.3162 17.056 75.0036 17.112 74.6816 17.112Z" fill="#424551"/>
<defs>
<clipPath id="clip0_18270_1126">
<rect width="16" height="16" fill="white" transform="translate(8 3.5)"/>
</clipPath>
</defs>
</svg>

<svg width="85" height="23" fill="none" xmlns="http://www.w3.org/2000/svg"><rect width="85" height="23" rx="4" fill="#fff"/><g clip-path="url(#clip0_18270_1126)" fill-rule="evenodd" clip-rule="evenodd" fill="#424551"><path d="M12.133 7.767a3.867 3.867 0 017.734 0v3.2a3.867 3.867 0 01-7.734 0v-3.2zM16 5.234a2.533 2.533 0 00-2.533 2.533v3.2a2.533 2.533 0 005.066 0v-3.2c0-1.4-1.134-2.533-2.533-2.533z"/><path d="M10.667 9.234c.368 0 .666.298.666.666v1.067a4.667 4.667 0 009.334 0V9.9A.667.667 0 1122 9.9v1.067a6 6 0 01-12 0V9.9c0-.368.299-.666.667-.666z"/><path d="M16 16.167c.368 0 .667.298.667.667v.933h1.466a.667.667 0 110 1.333h-4.266a.667.667 0 010-1.333h1.466v-.933c0-.369.299-.667.667-.667z"/></g><path d="M32.242 12.17a3.09 3.09 0 001.022-.154c.299-.103.548-.245.749-.427.205-.187.36-.408.462-.665a2.26 2.26 0 00.154-.847c0-.64-.198-1.139-.595-1.498-.392-.36-.99-.539-1.792-.539h-1.61v4.13h1.61zm0-5.201c.635 0 1.185.075 1.652.224.471.145.861.352 1.169.623.308.27.537.597.686.98.154.383.231.81.231 1.281 0 .467-.082.894-.245 1.281a2.738 2.738 0 01-.721 1.001c-.313.28-.702.5-1.169.658-.462.154-.996.231-1.603.231h-1.61V17h-1.351V6.969h2.961zm7.773 2.828c.518 0 .985.086 1.4.259.415.173.77.418 1.064.735.294.317.518.702.672 1.155.159.448.238.95.238 1.505 0 .56-.08 1.064-.238 1.512a3.19 3.19 0 01-.672 1.148 3.001 3.001 0 01-1.064.735 3.705 3.705 0 01-1.4.252c-.523 0-.994-.084-1.414-.252a3 3 0 01-1.064-.735c-.294-.317-.52-.7-.679-1.148a4.634 4.634 0 01-.23-1.512c0-.555.076-1.057.23-1.505a3.26 3.26 0 01.68-1.155 3 3 0 011.063-.735 3.68 3.68 0 011.414-.259zm0 6.328c.7 0 1.223-.233 1.568-.7.345-.471.518-1.127.518-1.967 0-.845-.173-1.503-.518-1.974-.345-.471-.868-.707-1.568-.707-.355 0-.665.06-.93.182a1.748 1.748 0 00-.659.525 2.409 2.409 0 00-.392.847 4.598 4.598 0 00-.126 1.127c0 .84.173 1.496.518 1.967.35.467.88.7 1.59.7zm9.574-4.529c-.233-.313-.485-.53-.756-.651a2.13 2.13 0 00-.91-.189c-.658 0-1.164.236-1.519.707-.354.471-.532 1.143-.532 2.016 0 .462.04.859.12 1.19.079.327.195.597.35.812.153.21.342.364.566.462.224.098.479.147.763.147.411 0 .768-.093 1.071-.28.308-.187.59-.45.847-.791v-3.423zm1.246-4.907V17h-.742c-.177 0-.289-.086-.336-.259l-.112-.861a3.86 3.86 0 01-1.036.882c-.387.224-.835.336-1.344.336-.406 0-.774-.077-1.106-.231a2.328 2.328 0 01-.847-.693c-.233-.303-.413-.681-.539-1.134a5.838 5.838 0 01-.189-1.561c0-.523.07-1.008.21-1.456a3.59 3.59 0 01.602-1.176c.262-.331.581-.59.96-.777a2.84 2.84 0 011.287-.287c.434 0 .805.075 1.113.224.313.145.59.348.833.609V6.689h1.246zm6.903 4.48a.557.557 0 01-.112.119.251.251 0 01-.154.042.426.426 0 01-.23-.084 3.191 3.191 0 00-.316-.196 2.228 2.228 0 00-.455-.189 2.052 2.052 0 00-.658-.091c-.35 0-.658.063-.924.189-.266.121-.49.299-.672.532a2.508 2.508 0 00-.406.847 4.305 4.305 0 00-.133 1.113c0 .43.05.812.147 1.148.098.331.236.611.413.84.182.224.4.397.651.518.257.117.544.175.861.175.304 0 .553-.035.75-.105a2.21 2.21 0 00.482-.245 4.19 4.19 0 00.322-.238.407.407 0 01.26-.112c.102 0 .181.04.237.119l.35.455a2.483 2.483 0 01-.525.49c-.196.135-.408.25-.637.343-.224.089-.46.154-.707.196a4.502 4.502 0 01-.756.063c-.443 0-.856-.082-1.239-.245a2.845 2.845 0 01-.987-.707 3.371 3.371 0 01-.658-1.148 4.662 4.662 0 01-.238-1.547c0-.527.073-1.015.217-1.463.15-.448.364-.833.644-1.155a2.947 2.947 0 011.043-.763c.416-.182.892-.273 1.428-.273.5 0 .938.082 1.316.245.383.159.721.385 1.015.679l-.329.448zm5.594 2.639c-.574.019-1.064.065-1.47.14-.401.07-.73.163-.987.28-.252.117-.436.254-.553.413a.901.901 0 00-.168.532c0 .187.03.348.091.483.06.135.142.247.245.336.107.084.231.147.371.189.145.037.299.056.462.056.22 0 .42-.021.602-.063a2.32 2.32 0 00.511-.196c.163-.084.317-.184.462-.301.15-.117.294-.25.434-.399v-1.47zm-4.025-2.898a4.05 4.05 0 011.267-.847c.453-.187.954-.28 1.505-.28.397 0 .749.065 1.057.196.308.13.567.313.777.546.21.233.369.516.476.847.107.331.161.695.161 1.092V17h-.553a.571.571 0 01-.28-.056c-.065-.042-.117-.121-.154-.238l-.14-.672a7.582 7.582 0 01-.546.462c-.177.13-.364.243-.56.336a3.016 3.016 0 01-.63.203c-.22.051-.464.077-.735.077a2.62 2.62 0 01-.777-.112 1.877 1.877 0 01-.637-.35 1.694 1.694 0 01-.427-.581 2.108 2.108 0 01-.154-.84c0-.28.077-.548.231-.805.154-.261.404-.492.749-.693.345-.2.796-.364 1.351-.49.555-.13 1.237-.205 2.044-.224v-.553c0-.55-.119-.966-.357-1.246-.238-.285-.586-.427-1.043-.427-.308 0-.567.04-.777.119a2.758 2.758 0 00-.539.259c-.15.093-.28.18-.392.259a.561.561 0 01-.322.112.372.372 0 01-.217-.063.662.662 0 01-.154-.168l-.224-.399zm11.27.168a.276.276 0 01-.258.154.488.488 0 01-.238-.077 4.194 4.194 0 00-.33-.168 2.508 2.508 0 00-.454-.175 2.101 2.101 0 00-.63-.084c-.21 0-.4.028-.567.084a1.353 1.353 0 00-.434.217 1.022 1.022 0 00-.273.329.88.88 0 00-.091.399.68.68 0 00.154.455c.107.121.247.226.42.315s.369.168.588.238c.22.065.443.138.672.217.233.075.46.159.679.252.22.093.415.21.588.35.173.14.31.313.413.518.107.2.16.443.16.728 0 .327-.057.63-.174.91a2.03 2.03 0 01-.518.721c-.229.2-.509.36-.84.476a3.45 3.45 0 01-1.148.175c-.495 0-.943-.08-1.344-.238a3.46 3.46 0 01-1.022-.623l.294-.476a.428.428 0 01.133-.14.359.359 0 01.196-.049.47.47 0 01.266.098 6.3 6.3 0 00.336.217 2.236 2.236 0 001.204.315c.243 0 .455-.03.637-.091a1.38 1.38 0 00.455-.259.975.975 0 00.266-.371c.06-.14.09-.29.09-.448a.718.718 0 00-.16-.483 1.24 1.24 0 00-.413-.329 3.039 3.039 0 00-.595-.238l-.68-.217a9.188 9.188 0 01-.678-.252 2.493 2.493 0 01-.588-.364 1.688 1.688 0 01-.42-.532 1.79 1.79 0 01-.154-.777c0-.27.056-.53.168-.777a1.87 1.87 0 01.49-.658 2.38 2.38 0 01.79-.455c.314-.112.67-.168 1.072-.168.467 0 .884.075 1.253.224.373.145.695.345.966.602l-.28.455zm4.105 6.034c-.56 0-.992-.156-1.295-.469-.3-.313-.448-.763-.448-1.351v-4.34h-.854a.289.289 0 01-.19-.063c-.05-.047-.076-.117-.076-.21v-.497l1.162-.147.287-2.191a.297.297 0 01.09-.168.28.28 0 01.197-.07h.63v2.443h2.05v.903h-2.05v4.256c0 .299.072.52.217.665a.758.758 0 00.56.217 1.02 1.02 0 00.588-.168c.07-.042.128-.08.175-.112a.237.237 0 01.133-.056c.065 0 .123.04.175.119l.364.595c-.215.2-.474.36-.777.476a2.688 2.688 0 01-.938.168z" fill="#424551"/><defs><clipPath id="clip0_18270_1126"><path fill="#fff" transform="translate(8 3.5)" d="M0 0h16v16H0z"/></clipPath></defs></svg>
